!!!!SEGMENT: pl-wn--mus-iii-65-947-cim--020_sowinski-wojciech--swiety-wojciech-meczennik-no-18-meczenstwo-recitativo-i-arja.krn
!!!cenid: 18xx:3613
!!!COM: Sowiński, Wojciech
!!!COM-rismid: pe30008543
!!!CDT: ~1803-1880/03/05
!!!CNT:
!!!GTL: Święty Wojciech męczennik
!!!OTL: No. 18. Męczeństwo. Recitativo i arja
!!!PDT: 1877
!!!AGN:
!!!SMS-siglum: PL-Wn
!!!SMS-shelfmark: Mus.III.65.947 Cim.
!!!SMS-shelfwork: 020 G
!!!SMS-variant:
!!!SMS-altvar:
!!!NIFC-rismid:
!!!OMD: Allo. agitato.
!!!system-decoration: s1{(s2,s3)}
**kern	**kern	**dynam	**kern	**text	**dynam
*part2	*part2	*part2	*part1	*part1	*part1
*staff3	*staff2	*	*staff1	*staff1	*
*Iempty	*Ipiano	*	*Iempty	*	*
*	*I"Piano	*	*I"WOJCIECH.	*	*
*	*I'pf	*	*I'W	*	*
*clefF4	*clefG2	*	*clefF4	*	*
*k[b-e-]	*k[b-e-]	*	*k[b-e-]	*	*
*g:	*g:	*	*g:	*	*
*M6/8	*M6/8	*	*M6/8	*	*
=1	=1	=1	=1	=1	=1
*	*^	*	*	*	*
[2.GG/	4.g/	2.G\	.	2.r	.	.
.	8g/L	.	.	.	.	.
.	8g/	.	.	.	.	.
.	8g/J	.	.	.	.	.
=2	=2	=2	=2	=2	=2	=2
8GG/L]	8g/L	2.G\	.	2.r	.	.
8GG/	8g/	.	.	.	.	.
8AA/J	8g/J	.	.	.	.	.
8BB-/L	8g/L	.	.	.	.	.
8C/	8g/	.	.	.	.	.
8D/J	8g/J	.	.	.	.	.
*	*v	*v	*	*	*	*
=3	=3	=3	=3	=3	=3
4E-\	4g 4G/	.	2.r	.	.
8r	8r	.	.	.	.
[4.D\	[4.f#X [4.F#X/	.	.	.	.
=4	=4	=4	=4	=4	=4
4.D] 4.DD/	8f#X]L 8F#X/]	.	2.r	.	.
.	16F#/L	.	.	.	.
.	16f#/	.	.	.	.
.	16G/	.	.	.	.
.	16g/JJ	.	.	.	.
8C/L	16A/LL	.	.	.	.
.	16a/	.	.	.	.
8BB-/	16B-/	.	.	.	.
.	16b-/	.	.	.	.
8AA/J	16c/	.	.	.	.
.	16cc/JJ	.	.	.	.
=5	=5	=5	=5	=5	=5
4GG/	4ee- 4cc 4a 4e-/	.	2.r	.	.
8r	8r	.	.	.	.
[4.F#X [4.FF#X\	4.dd 4.cc 4.a 4.d/	.	.	.	.
=6	=6	=6	=6	=6	=6
*^	*	*	*	*	*
8F#X] 8FF#X/]	8ryy	8ddL 8d/	<	2.r	.	.
8F#/L	4D\	8cc 8d/	.	.	.	.
8G/J	.	8b-J 8d/	[	.	.	.
8A/L	4.D\	8aL 8f#X 8d/	>	.	.	.
8G/	.	8b- 8g 8d/	.	.	.	.
8F#/J	.	8ccJ 8a 8d/	]	.	.	.
*v	*v	*	*	*	*	*
=7	=7	=7	=7	=7	=7
4G 4GG\	4b- 4g 4d/	.	4r	.	.
!	!LO:TX:b:t=riten.	!	!	!	!
8D\	8a 8f#X 8d/	.	8r	.	.
4G 4GG\	4g 4d 4B-/	.	4r;	.	.
8r;	8r;	.	8D\	O	.
=8	=8	=8	=8	=8	=8
2.r	2.r	.	[4.G\	Pa-	.
.	.	.	4G\]	.	.
.	.	.	8A\	-nie!	.
=9	=9	=9	=9	=9	=9
2.r	2.r	.	4B-\	go-	.
.	.	.	8B-\	-tów	.
.	.	.	4A\	na	.
.	.	.	8G\	ka-	.
=10	=10	=10	=10	=10	=10
2.r	2.r	.	4.G\	-tu-	.
.	.	.	4F#X\	-sze,	.
.	.	.	8r	.	.
=11	=11	=11	=11	=11	=11
4.F#X\	4.a 4.d 4.c/	.	4.D\	Roz-	.
4r	4r	.	4A\	-każ	.
8r	8r	.	8r	.	.
=12	=12	=12	=12	=12	=12
2.r	2.r	.	4A\	w ja-	.
!	!	!	!	!	!LO:HP:a
.	.	.	8C/	-ki	>
.	.	.	4E-\	pój-	.
!	!	!	!	!	!LO:DY:a
.	.	.	8D\	-dę	p ]]
=13	=13	=13	=13	=13	=13
*^	*	*	*	*	*
4r	4ryy	4r	.	4.G\	kraj?	.
8r	8ryy	8r	.	.	.	.
4.G/	4BB-\	8g/L	f	4r	.	.
.	.	8g/	.	.	.	.
.	8AA\	8g/J	.	8r	.	.
*v	*v	*	*	*	*	*
=14	=14	=14	=14	=14	=14
*	*^	*	*	*	*
[2.GG/	8g/L	4r	.	2.r	.	.
.	8g/	.	.	.	.	.
.	8g/J	8r	.	.	.	.
.	8g/L	4G\	.	.	.	.
.	8g/	.	.	.	.	.
.	8g/J	8A\	.	.	.	.
=15	=15	=15	=15	=15	=15	=15
8GG/L]	8g/L	8B-\L	.	2.r	.	.
8GG/	8g/	8B-\	<	.	.	.
8AA/J	8g/J	8c\J	.	.	.	.
8BB-/L	8g/L	8d\L	.	.	.	.
8C/	8g/	8e-\	.	.	.	.
8D/J	8g/J	8d\J	.	.	.	.
=16	=16	=16	=16	=16	=16	=16
4E-\	8g/L	4c\	[	2.r	.	.
.	8g/	.	.	.	.	.
8r	8g/J	8ryy	.	.	.	.
[4.En\	8.g/L	4d-X 4B-\	.	.	.	.
.	16g/K	.	.	.	.	.
.	8g/J	8ryy	.	.	.	.
=17	=17	=17	=17	=17	=17	=17
4.En\]	8g/L	8d-XL 8B-\	.	2.r	.	.
.	8g/	8G\	.	.	.	.
.	8a/J	8A\J	.	.	.	.
4.E 4.C#X 4.BB- 4.EEn/	8b-/L	8B-\L	.	.	.	.
.	8cc/	8c\	.	.	.	.
.	8b-/J	8B-\J	.	.	.	.
*	*v	*v	*	*	*	*
=18	=18	=18	=18	=18	=18
4F 4D 4BB- 4FF/	8ddL 8b- 8f 8d/	f	2.r	.	.
.	8dd 8d/	.	.	.	.
8r	8ddJ 8d/	.	.	.	.
[4.F 4.D 4.BB- [4.FF/	8ddL 8d/	.	.	.	.
.	8dd 8d/	.	.	.	.
.	8ee-J 8e-/	.	.	.	.
=19	=19	=19	=19	=19	=19
4F] 4D 4BB- 4FF/]	8eenL 8en\	.	2.r	.	.
.	8ff 8f\	.	.	.	.
8r	8ff#XJ 8f#X\	.	.	.	.
4.F 4.D 4.BB- 4.FF/	8ggL 8g\	.	.	.	.
.	8aa-X 8a-X\	.	.	.	.
.	8aanJ 8an\	.	.	.	.
=20	=20	=20	=20	=20	=20
4F 4FF/	8bb-L 8b-\	.	2.r	.	.
.	8bbn 8bn\	.	.	.	.
8r	8cccJ 8cc\	.	.	.	.
4.e- 4.c 4.F^\	8ccc#XL 8cc#X\	.	.	.	.
.	8ddd 8dd\	.	.	.	.
.	8eee-J 8ee-\	.	.	.	.
=21	=21	=21	=21	=21	=21
*	*8va	*	*	*	*
4.e- 4.c 4.F\	8eeenL 8een\	.	2.r	.	.
.	8fff 8ff\	.	.	.	.
.	8fff#XJ 8ff#X\	.	.	.	.
4.e- 4.c 4.F\	8gggL 8gg\	.	.	.	.
.	8aaa 8aa\	.	.	.	.
.	8aaanJ 8aan\	.	.	.	.
=22	=22	=22	=22	=22	=22
4d 4B-\	4bbb- 4bb-\	.	2.r	.	.
*	*X8va	*	*	*	*
8B- 8BB-\	8b- 8f 8d/	.	.	.	.
[4.B- [4.BB-\	[4.b- 4.f [4.d/	.	.	.	.
=23	=23	=23	=23	=23	=23
4B-] 4BB-\]	4b-] 4f 4d/]	.	4r	.	.
8r	8r	.	8r	.	.
4r	4r	.	4B-\	Oś-	.
8r	8r	.	8B-\	-wieć	.
=24	=24	=24	=24	=24	=24
2.r	2.r	.	[4.B-\	tę-	.
.	.	.	4B-\]	.	.
.	.	.	8B-\	-skną	.
=25	=25	=25	=25	=25	=25
[2.D\	[2.b- [2.a-X [2.f [2.B-/	p	[4.A\	mo-	.
.	.	.	4A\]	.	.
.	.	.	8A\	-ją	.
=26	=26	=26	=26	=26	=26
*	*^	*	*	*	*
*	*	*^	*	*	*	*
4.D/]	4.b-] 4.a-X] 4.f] 4.B-/]	2ryy	2ryy	<	4.F\	du-	.
8BB-/	8b- 8a- 8f 8B-/	.	.	[	4F\	-szę	.
4C-X/	4an/	8f\L	4An\	>	.	.	.
.	.	8e-\J	.	.	8r	.	.
*	*	*v	*v	*	*	*	*
*	*v	*v	*	*	*	*
=27	=27	=27	=27	=27	=27
4BB-/	4b- 4d 4B-/	]	8r	.	.
.	.	.	8D\	I	.
8r	8r	.	8D\	mę-	.
4r	4r	.	4.F\	-czeń-	.
8r	8r	.	.	.	.
=28	=28	=28	=28	=28	=28
4r	4r	.	8F\	-stwa	.
.	.	.	8E-\	si-	.
8r	8r	.	8C/	-łę	.
8r	8r	.	([4.BB-/	daj!	.
8BB-L 8BBB-/	8B-/L	p	.	.	.
8BB-J 8BBB-/	8B-/J	.	.	.	.
=29	=29	=29	=29	=29	=29
[4.BB- [4.BBB-\	[4.B-/	.	4.BB-/_	.	.
4.BB-] 4.BBB-\]	8B-/L]	.	4BB-/])	.	.
!	!LO:TX:a:t=corni	!	!	!	!
.	8e- 8B- 8G/	.	.	.	.
.	8e-J 8B- 8G/	.	8r	.	.
=30	=30	=30	=30	=30	=30
*	*^	*	*	*	*
4.BB- 4.BBB-\	[4.e-/	8AnL 8F#X/	.	2.r	.	.
.	.	8B- 8G/	.	.	.	.
.	.	8cJ 8A-X/	.	.	.	.
4.BB- 4.BBB-\	8e-/L]	8cL 8A-/	.	.	.	.
.	8e-/	8B- 8G/	.	.	.	.
.	8e-/J	8AnJ 8F#X/	.	.	.	.
=31	=31	=31	=31	=31	=31	=31
4.BB- 4.BBB-\	8e-/L	(4A-X 4Fn/	.	2.r	.	.
.	8d/	.	.	.	.	.
.	8d-X/J	8G 8En/	.	.	.	.
4.BB- 4.BBB-\	8d-/L	4G-X 4E-X/	.	.	.	.
.	8c/	.	.	.	.	.
.	8c/J	8F 8E-/)	.	.	.	.
*	*v	*v	*	*	*	*
=32	=32	=32	=32	=32	=32
2.BB- 2.BBB-\	2.B- 2.F;/	.	2.r;	.	.
=33||	=33||	=33||	=33||	=33||	=33||
!!!OMD: Andante cantabile.
*k[b-e-a-]	*k[b-e-a-]	*	*k[b-e-a-]	*	*
*M12/8	*M12/8	*	*M12/8	*	*
4.E- 4.EE-/	8r	.	4r	.	.
.	8gL 8e- 8G/	p	.	.	.
.	8gJ 8e- 8G/	.	8r	.	.
4r	4g 4e- 4G/	.	4r	.	.
8r	8r	.	8r	.	.
4.E- 4.EE-\	8r	.	4r	.	.
.	8gL 8e- 8G/	.	.	.	.
.	8gJ 8e- 8G/	.	8r	.	.
!	!	!	!	!	!LO:DY:a
4r	4g 4e- 4G/	.	4E-\	W brat-	p
8r	8r	.	8F\	-nim	.
=34	=34	=34	=34	=34	=34
!	!	!	!	!	!LO:HP:a
4.E- 4.EE-\	8r	.	4.G\	ro-	<
.	8gL 8e- 8G/	.	.	.	.
.	8gJ 8e- 8G/	.	.	.	.
4r	4g 4e- 4G/	.	8E-\	-dzie,	.
.	.	.	8G\	u	[
8r	8r	.	8c\	Le-	.
4.BB- 4.BBB-\	8r	.	4.B-\	-chi-	.
.	8fL 8e- 8F/	.	.	.	.
.	8fJ 8e- 8F/	.	.	.	.
4r	4f 4e- 4F/	.	4.B-\	-ty,	.
8r	8r	.	.	.	.
=35	=35	=35	=35	=35	=35
4.BB- 4.BBB-\	8r	.	8B-\	Już	.
!	!	!	!	!	!LO:DY:a
.	8fL 8d 8F/	.	8F\	da-	p
.	8fJ 8d 8F/	.	8G\	-remn-	.
4r	4f 4d 4F/	.	8A-\	-ny	.
.	.	.	8G\	był	.
8r	8r	.	8F\	mój	.
4.E- 4.EE-\	8r	.	4.G\	trud;	.
.	8e-L 8B- 8G/	.	.	.	.
.	8e-J 8B- 8G/	.	.	.	.
4r	4e- 4B- 4G/	.	4E-\	tu	.
8r	8r	.	8F\	cno-	.
=36	=36	=36	=36	=36	=36
!	!	!	!	!	!LO:HP:a
4.E- 4.EE-\	8r	.	4.G\	-ta	<
.	8gL 8e- 8G/	.	.	.	.
.	8gJ 8e- 8G/	.	.	.	.
4r	4g 4e- 4G/	.	8E-\	mi	.
.	.	.	8G\	kraj	[
8r	8r	.	8c\	ob-	.
4.BB- 4.BBB-\	8r	.	4.B-\	-fi-	.
.	8fL 8F/	.	.	.	.
.	8e-J 8F/	.	.	.	.
4r	(8dL 8F/	.	4B-\	-ty,	.
.	8f/	.	.	.	.
8r	8cc/J)	.	8r	.	.
=37	=37	=37	=37	=37	=37
4.BB- 4.BBB-\	8b-/	.	8D\	Wia-	.
!	!	!	!	!	!LO:DY:a
.	8fL 8d 8F/	.	8F\	-rą	p
.	8fJ 8d 8F/	.	8G\	sil-	.
4r	4f 4d 4F/	.	8A-\	-ny	.
.	.	.	(16qqB-/LL	.	.
.	.	.	16qqA-/JJ	.	.
.	.	.	8G\)	Pias-	.
8r	8r	.	8F\	-ta	.
4.E- 4.EE-\	8r	.	4.E-\	lud!	.
.	8gL 8e- 8G/	.	.	.	.
.	8gJ 8e- 8G/	.	.	.	.
8r	4g 4e- 4G/	.	4r	.	.
4r	.	.	.	.	.
.	8r	.	8G\	Sam	.
=38	=38	=38	=38	=38	=38
!	!	!	!	!	!LO:DY:a
(16CC/LL	8r	mf	4.G\	Po-	mf
16EE-/	.	.	.	.	.
16GG/	8ccL 8g 8e-/	.	.	.	.
16C/	.	.	.	.	.
16E-/	8ccJ 8g 8e-/	.	.	.	.
16G/JJ)	.	.	.	.	.
4c\	4.cc 4.g 4.e-/	.	(8E-\L	-lak	.
.	.	.	8G\J)	.	.
8r	.	.	8c\	twą	.
(16GGG/LL	8r	.	4Bn\	sła-	.
16BBBn/	.	.	.	.	.
16DD/	8bnL 8g 8d/	.	.	.	.
16GG/	.	.	.	.	.
16BBn/	8bJ 8g 8d/	.	8G\	-wę	.
16D/JJ)	.	.	.	.	.
4G\	4.b 4.g 4.d/	.	4G\	gło-	.
8r	.	.	8G\	-si;	.
=39	=39	=39	=39	=39	=39
(16GGG/LL	8r	.	4A-^\	klę-	.
16BBBn/	.	.	.	.	.
16DD/	8ddL 8f 8d/	.	.	.	.
16GG/	.	.	.	.	.
16BBn/	8ddJ 8f 8d/	.	(8G\	-cząc	.
16GG/JJ)	.	.	.	.	.
4.GGG/	(4.dd 4.f (4.d/	.	8F\L	u	.
.	.	.	8E-\J)	.	.
!	!	!	!LO:TX:a:t=rall.	!	!
.	.	.	8D\	Ma-	.
8CC/	4cc 4g 4e-/))	.	8C\L	-ry-	.
8r	.	.	8E-\J	.	.
8r	8r	.	8G\	-i	.
[4.c [4.G [4.E- [4.C;\	8r	.	[4.c;\	stóp,	.
.	[4cc [4g [4e-;/	.	.	.	.
=40	=40	=40	=40	=40	=40
8c] 8G] 8E-] 8C\]	8cc] 8g] 8e-/]	.	4c\]	.	.
8r	8r	.	.	.	.
8r	8r	.	8Bn\	Ma-	.
!	!LO:TX:b:t=colla parte	!	!	!	!
2.B- 2.BB-;\	2.dd 2.a- 2.f;\	.	4B-X\	-ry-	.
.	.	.	8An\	-i	.
.	.	.	4.A-X;\	stóp,	.
4r	4r	.	8r	.	.
!	!	!	!	!	!LO:DY:a
.	.	.	8G\	Daw-	p
8r	8r	.	8G\	-ne	.
=41	=41	=41	=41	=41	=41
!	!	!	!LO:TX:a:t=a tempo	!	!
4.E- 4.EE-\	8r	.	4G\	swe	.
.	8gL 8e- 8B-/	.	.	.	.
.	8gJ 8e- 8B-/	.	8G\	bo-	.
4r	4g 4e- 4B-/	.	(8E-\L	-ży-	.
.	.	.	8G\J)	.	.
8r	8r	.	8c\	-szcza	.
4.BB- 4.BBB-\	8r	.	4.B-\	zno-	.
.	8fL 8e- 8F/	.	.	.	.
.	8fJ 8e- 8F/	.	.	.	.
4r	8f 8d 8F/	.	4G\	-si:	.
.	8f/L	.	.	.	.
8r	8cc/J	.	8r	.	.
=42	=42	=42	=42	=42	=42
4.BB- 4.BBB-\	8b-/	.	8B-\	Tu	.
.	8fL 8d 8F/	.	8F\	zam-	.
.	8fJ 8d 8F/	.	8G\	-knię-	.
4r	4.f 4.d 4.F/	.	8A-\	-ty	.
.	.	.	32qqB-/LLL	.	.
.	.	.	32qqA-/JJJ	.	.
.	.	.	(8G\L	dla	.
!	!	!	!LO:TX:a:t=accelerando.	!	!
8r	.	.	8F\J)	.	.
4.E- 4.EE-\	8r	.	4.E-\	mnie	.
.	8gL 8e- 8G/	.	.	.	.
.	8gJ 8e- 8G/	.	.	.	.
(16EE-\LL	4.g 4.e- 4.d-X 4.G/	.	4r	.	.
16BB-\	.	.	.	.	.
16D-X\	.	.	.	.	.
16E-\	.	.	.	.	.
16D-\	.	.	8G\	zam-	.
16BB-\JJ)	.	.	.	.	.
=43	=43	=43	=43	=43	=43
4.AA-\	8r	.	4.A-\	-knię-	.
.	8a-L 8e- 8c 8A-/	.	.	.	.
.	8a-J 8e- 8c 8A-/	.	.	.	.
(16FF\LL	4.an 4.f 4.e- 4.c/	.	4An\	-ty	.
16C\	.	.	.	.	.
16E-\	.	.	.	.	.
16F\	.	.	.	.	.
16E-\	.	.	8A\	zam-	.
16C\JJ)	.	.	.	.	.
4.BB-\	8r	.	4B-\	-knię-	.
.	8b-L 8f 8d 8B-/	<	.	.	.
.	8b-J 8f 8d 8B-/	.	8B-\	-ty	.
(16GG\LL	4.bn 4.g 4.f 4.d/	[[	4Bn\	dla	.
16D\	.	.	.	.	.
16F\	.	.	.	.	.
16G\	.	.	.	.	.
16F\	.	.	8B\	mnie	.
16D\JJ)	.	.	.	.	.
=44	=44	=44	=44	=44	=44
4.A- 4.AA-\	4r	.	([4d\	.	.
.	8r	f	4d\]	.	.
4.A- 4.AA-\	4.cc 4.a- 4.e- 4.c/	.	.	.	.
.	.	.	8c\)	.	.
.	.	.	(8B-\L	.	.
4r	4r	.	8A-\J)	.	.
!	!	!	!LO:TX:a:t=rall.	!	!
.	.	.	4G\	.	.
8r	8r	.	.	.	.
4.AAn 4.AAAn/	4r	p	(8F\L	.	.
.	.	.	8E-\	.	.
.	8r	.	8C\J)	.	.
=45	=45	=45	=45	=45	=45
!	!	!	!LO:TX:a:t=a tempo.	!	!
4.BB- 4.BBB-\	8r	.	4.BB-/	.	.
!	!LO:TX:b:t=a tempo.	!	!	!	!
.	8gL 8e- 8G/	.	.	.	.
.	8gJ 8e- 8G/	.	.	.	.
4r	4g 4e- 4G/	.	(8E-\L	.	.
.	.	.	8G\J)	.	.
8r	8r	.	8c\	.	.
4.BB- 4.BBB-\	8r	.	4.B-\	.	.
.	8fL 8e- 8F/	.	.	.	.
.	8fJ 8e- 8F/	.	.	.	.
4r	4f 4d 4F/	.	(8B-\L	.	.
.	.	.	8A-\J)	.	.
8r	8r	.	8F\	.	.
=46	=46	=46	=46	=46	=46
8E-L 8EE-\	4.g 4.G/	.	4.E-\	.	.
8B- 8G 8E-\	.	.	.	.	.
8B-J 8G 8E-\	.	.	.	.	.
4B- 4G 4E-\	(8e-/L	<	8ryy	.	.
.	8g/	.	1ryy	.	.
8r	8cc/J)	.	.	.	.
8BB-L 8BBB-\	4.b-/	[ >	.	.	.
8A- 8F 8BB-\	.	.	.	.	.
8A-J 8F 8BB-\	.	.	.	.	.
4A- 4F 4BB-\	(8b-/L	.	.	.	.
.	8a-/	]	.	.	.
8r	8d/J)	.	.	.	.
=47||	=47||	=47||	=47||	=47||	=47||
!!!OMD: Allo. come primo.
*	*	*	*clefG2	*	*
4E- 4EE-/	8e-\L	.	1.r	.	.
.	8gg 8g\	.	.	.	.
8r	8ggJ 8g\	.	.	.	.
4r	8ggL 8g\	.	.	.	.
.	8gg 8g\	.	.	.	.
8r	8ggJ 8g\	.	.	.	.
2.f 2.d 2.G^\	8ggL 8g\	.	.	.	.
.	8gg 8g\	.	.	.	.
.	8aanJ 8an\	.	.	.	.
.	8bbnL 8bn\	.	.	.	.
.	8ccc 8cc\	.	.	.	.
.	8dddJ 8dd\	.	.	.	.
=48	=48	=48	=48	=48	=48
8e-L 8c\	2.eee- 2.ee-\	.	1.r	.	.
8c 8C'\	.	.	.	.	.
8cJ 8C'\	.	.	.	.	.
8cL 8C'\	.	.	.	.	.
8c 8C'\	.	.	.	.	.
8cJ 8C'\	.	.	.	.	.
8cL 8C'\	2.ccc 2.cc\	.	.	.	.
8c\	.	.	.	.	.
(8d\J	.	.	.	.	.
8e-\L	.	.	.	.	.
8f\	.	.	.	.	.
8g\J)	.	.	.	.	.
=49	=49	=49	=49	=49	=49
*	*^	*	*	*	*
8a-\	8r	4.ryy	.	1.r	.	.
8r	8cccL 8dd\	.	.	.	.	.
8r	8cccJ 8dd\	.	.	.	.	.
4.g\	8bbn/L	4.bb 4.dd\	.	.	.	.
.	8bb/	.	.	.	.	.
.	8ccc/J	.	.	.	.	.
2.G\	8ddd\L	4ryy	<	.	.	.
.	8dd\	.	.	.	.	.
.	8ee-\	2ryy	.	.	.	.
.	8ff\	.	.	.	.	.
.	8gg\	.	.	.	.	.
.	8aa-\J	.	.	.	.	.
*	*v	*v	*	*	*	*
=50	=50	=50	=50	=50	=50
4.g 4.d 4.Bn\	(8aa-\L	[	1.r	.	.
.	8gg\	.	.	.	.
.	8ff#X\J	.	.	.	.
4g 4e- 4c\	8gg\L	.	.	.	.
.	8dd\	.	.	.	.
8r	8ee-\J)	.	.	.	.
4.e-X 4.d 4.B-X\	(8ff#X\L	.	.	.	.
.	8ee-\	.	.	.	.
.	8dd\J	.	.	.	.
4e- 4c 4A-X\	8ee-\L	.	.	.	.
.	8b-\	.	.	.	.
8r	8cc\J)	.	.	.	.
=51	=51	=51	=51	=51	=51
4.e- 4.d-X 4.G\	(8dd-X\L	.	1.r	.	.
.	8cc\	.	.	.	.
.	8b-X\J	.	.	.	.
4e- 4c 4A-X\	8cc\L	.	.	.	.
.	8a-\	.	.	.	.
8r	8cc\J)	.	.	.	.
([4.c 4.G 4.En\	(8dd-\L	.	.	.	.
.	8cc\	.	.	.	.
.	8b-\J	.	.	.	.
4c] 4A- 4F\)	8a-\L	.	.	.	.
.	8a-\	.	.	.	.
8r	8b-\J)	.	.	.	.
=52	=52	=52	=52	=52	=52
8F\L	8cc\L	.	1.r	.	.
8A-X\	8cc\	.	.	.	.
8B-\J	8b-\J	.	.	.	.
8c\L	8a-X/L	.	.	.	.
(8c\	8a-/	.	.	.	.
8B-\J)	8g/J	.	.	.	.
8A-'\L	8f/L	.	.	.	.
(8A-\	(8a-/	.	.	.	.
8G\J	8g/J	.	.	.	.
8F\L)	8f/L)	.	.	.	.
8E-'\	8e-/	.	.	.	.
8D'\J	8d/J	.	.	.	.
=53	=53	=53	=53	=53	=53
4C#X/	4c#X^/	.	4r	.	.
!	!	!	!LO:TX:a:t=PROMIEŃ.	!	!
8r	8r	.	8r	.	.
4.c#X 4.C#X\	4.een 4.g 4.en\	.	4r	.	.
.	.	.	8r	.	.
4.d 4.D\	4.dd 4.f#X 4.d\	.	4r	.	.
.	.	.	8r	.	.
4r	4r	.	4r	.	.
8r	8r	.	8dd\	Za	.
=54	=54	=54	=54	=54	=54
1.r	1.r	.	4.dd\	mną	.
.	.	.	4dd\	sy-	.
.	.	.	8dd\	-nu,	.
.	.	.	[4.dd\	tam	.
.	.	.	4dd\]	.	.
.	.	.	8dd\	gdzie	.
*clefG2	*	*	*	*	*
=55	=55	=55	=55	=55	=55
!	!	!	!	!	!LO:HP:a
4r	4r	.	4.dd\	gwiaz-	>
8r	8r	.	.	.	.
[4.g [4.e-/	8r	.	4.cc\	-da	]
.	(8ccc\L	p	.	.	.
.	8ddd\J	.	.	.	.
4.g] 4.e-/]	4ggg\)	.	4r	.	.
.	8r	.	8r	.	.
8r	4r	.	4cc\	świe-	.
4r	.	.	.	.	.
.	8r	.	8cc\	-ci	.
=56	=56	=56	=56	=56	=56
4r	4r	.	4cc\	od	.
8r	8r	.	8cc\	pół-	.
4r	4r	.	4.cc\	-no-	.
8r	8r	.	.	.	.
4r	4r	.	4.cc\	-cnych	.
8r	8r	.	.	.	.
4.f 4.d/	8r	.	4.b-\	stron,	.
.	8bb-\L	.	.	.	.
.	8ddd\J	.	.	.	.
=57	=57	=57	=57	=57	=57
[4.f [4.d/	[4.fff\	.	4r	.	.
.	.	.	8r	.	.
4f] 4d/]	4fff\]	.	4b-\	u	.
8r	8r	.	8b-\	Bo-	.
4r	4r	.	4.b-\	-ru-	.
8r	8r	.	.	.	.
4r	4r	.	4.an\	-sów	.
8r	8r	.	.	.	.
*clefF4	*	*	*	*	*
=58	=58	=58	=58	=58	=58
[4.F\	16fLL 16c/	sf	4ff\	dzi-	.
.	16an/	.	.	.	.
.	16f 16c/	.	.	.	.
.	16a/	.	.	.	.
.	16f 16c/	.	8ff\	-kich	.
.	16a/JJ	.	.	.	.
4F\]	16fLL 16c/	.	4.gg-X\	gniaz-	.
.	16a/	.	.	.	.
.	16f 16c/	.	.	.	.
.	16a/	.	.	.	.
8E-\	16f 16c/	.	.	.	.
.	16a/JJ	.	.	.	.
(4.D-X\	(4.b- 4.g-X ((4.B-/	.	4.ff\	-da,	.
8D-\)	8a-X 8f 8A-X/)))	.	4a-/	tam	.
8r	8r	.	.	.	.
8r	8r	.	8f/	chwa-	.
=59	=59	=59	=59	=59	=59
*^	*	*	*	*	*
!	!	!LO:TX:a:t=lento.	!	!LO:TX:a:t=lento.	!	!
2.En/	(2.C\	([2.c 2.B-/	.	4cc\	-le-	.
.	.	.	.	8cc\	-bny	.
.	.	.	.	4b-X\	znaj-	.
!	!	!	!	!	!	!LO:DY:a
.	.	.	.	8f/	-dziesz	p
4ryy	4F\)	4c] 4An/)	.	4.f/	zgon!	.
8r	2ryy	8r	.	.	.	.
4.F 4.FF/	.	4.an 4.f 4.e- 4.c/	.	4r	.	.
.	.	.	.	8r	.	.
*v	*v	*	*	*	*	*
=60||	=60||	=60||	=60||	=60||	=60||
*	*	*	*clefF4	*	*
*k[b-e-]	*k[b-e-]	*	*k[b-e-]	*	*
4.BB- 4.BBB-/	8b-L 8f 8dn 8B-/	.	4r	.	.
.	16B-/L	.	.	.	.
.	16b-/JJ	.	.	.	.
.	16B-/LL	.	8r	.	.
.	16b-/JJ	.	.	.	.
*	*tremolo	*	*	*	*
!	!	!	!LO:TX:a:t=Ś. WOJCIECH.	!	!
4.BB-/	16B-/LL	.	4r	.	.
.	16b-/	.	.	.	.
.	16B-/	.	.	.	.
.	16b-/	.	.	.	.
.	16B-/	.	8r	.	.
.	16b-/JJ	.	.	.	.
2.A-X 2.AA-X\	16B-^/LL	.	4r	.	.
.	16b-/	.	.	.	.
.	16B-/	.	.	.	.
.	16b-/	.	.	.	.
.	16B-/	.	8r	.	.
.	16b-/	.	.	.	.
.	16B-/	.	4r	.	.
.	16b-/	.	.	.	.
.	16B-/	.	.	.	.
.	16b-/	.	.	.	.
.	16B-/	.	8B-\	Ach!	.
.	16b-/JJ	.	.	.	.
=61	=61	=61	=61	=61	=61
2.G-X 2.GG-X/	16B-/LL	.	[4.B-\	zgon	.
.	16b-/	.	.	.	.
.	16B-/	.	.	.	.
.	16b-/	.	.	.	.
.	16B-/	.	.	.	.
.	16b-/	.	.	.	.
.	16B-/	.	4B-\]	.	.
.	16b-/	.	.	.	.
.	16B-/	.	.	.	.
.	16b-/	.	.	.	.
.	16B-/	.	8B-\	to	.
.	16b-/JJ	.	.	.	.
2.F 2.FF/	16B-/LL	.	4B-\	dla	.
.	16b-/	.	.	.	.
.	16B-/	.	.	.	.
.	16b-/	.	.	.	.
.	16B-/	.	8B-\	mnie	.
.	16b-/	.	.	.	.
.	16B-/	.	4B-\	ży-	.
.	16b-/	.	.	.	.
.	16B-/	.	.	.	.
.	16b-/	.	.	.	.
.	16B-/	.	8B-\	-cie	.
.	16b-/JJ	.	.	.	.
*	*Xtremolo	*	*	*	*
=62	=62	=62	=62	=62	=62
4.En 4.EEn/	4b- 4c#X 4B-/	.	4.B-\	wiecz-	.
.	16aLL 16g 16c# 16A/	.	.	.	.
.	16aJJ 16g 16c# 16A/	.	.	.	.
[4.D [4.DD/	[4.a [4.f#X [4.d [4.A/	.	4.An\	-ne!	.
4D] 4DD/]	4a] 4f#] 4d] 4A/]	.	4r	.	.
8r	8r	.	8r	.	.
!	!	!	!LO:TX:a:t=piu mosso	!	!LO:DY:a
4r	4d/	f	4D\	I-	f
!	!LO:TX:b:t=piu mosso.	!	!	!	!
8r	8d/	.	8D\	-dę	.
=63	=63	=63	=63	=63	=63
4.G 4.GG\	4.g 4.d 4.B-/	.	4.G\	kłos	.
4.D\	4.a 4.f#X 4.d/	.	4.An\	twój	.
4.G 4.GG\	8b-L 8g/	.	4B-\	Pa-	.
.	8a 8d/	.	.	.	.
.	8gJ 8B-/	.	8B-\	-nie	.
4.D\	4.a 4.f# 4.d^/	.	8A\	żąć,	.
.	.	.	8r	.	.
.	.	.	8r	.	.
=64	=64	=64	=64	=64	=64
4.G 4.GG\	4.g 4.d 4.B-/	.	4G\	zba-	.
.	.	.	8G\	-wić	.
4.D\	4.a 4.f#X 4.d/	<	4.A\	lu-	.
4.G 4.GG\	8b-L 8g/	.	8B-\	-dy	.
.	8a 8d/	.	8A\	te	.
.	8b-J 8g/	.	8B-\	wa-	.
4.Fn 4.FFn/	4.cc 4.a 4.c/	[[	4c\	-le-	.
.	.	.	8F\	-czne,	.
=65	=65	=65	=65	=65	=65
4.F 4.FF/	4.cc 4.a 4.c/	.	4c\	lub	.
.	.	.	8c\	a-	.
4.BB-/	4.dd 4.b- 4.d/	.	4d\	-nie-	.
.	.	.	8d\	-lską	.
.	(8qdd/	.	.	.	.
[4.F 4.FF/	8ccL 8a\	.	(8c\L	pal-	.
.	8b- 8g\	.	8B-\J)	.	.
.	8ccJ 8a\)	.	8c\	-mę	.
4.F] 4.BB-/	4.dd 4.b-\	.	(4d\	ściąć,	.
.	.	.	8B-\)	.	.
=66	=66	=66	=66	=66	=66
4.D\	4.a 4.f#X 4.d/	.	8An\	zba-	.
.	.	.	8A\	-wić	.
.	.	.	8A\	lu-	.
4.G 4.GG\	8b-L 8g/	.	8B-\	-dy	.
.	8a 8d/	.	8A\	te	.
!	!	!	!	!	!LO:HP:a
.	8gJ 8B-/	.	8G\	wa-	>
[4.D\	[4.a [4.f# [4.d/	.	4.A\	-le-	.
4D\]	4a] 4f#] 4d/]	.	4A\	-czne,	.
8r	8r	.	8r	.	]]
=67	=67	=67	=67	=67	=67
4r	4r	.	4An\	lub	.
!	!	!	!LO:TX:a:t=lento.	!	!
8r	8r	.	8A\	a-	.
[4.En [4.EEn/	[4.a [4.g [4.c#X/	.	4A\	-niels-	.
.	.	.	8A\	-ką	.
4E] 4EE/]	4a] 4g] 4c#/]	.	4Bn\	pal-	.
8AA 8AAA/	8cc#X 8a 8g 8en/	.	8c#X\	-mę	.
4.D 4.DD;/	4.dd 4.a 4.f#X 4.d;/	.	4.d;\	ściąć!	.
=68	=68	=68	=68	=68	=68
!!!OMD: Allo con moto.
16GG\LL	8r	p	1.r	.	.
16D\	.	.	.	.	.
16B-\	8g/L	.	.	.	.
16D\	.	.	.	.	.
16B-\	8a/J	.	.	.	.
16D\JJ	.	.	.	.	.
16GG\LL	8b-\	.	.	.	.
16D\	.	.	.	.	.
16B-\	8b-\L	.	.	.	.
16D\	.	.	.	.	.
16B-\	8cc\J	.	.	.	.
16D\JJ	.	.	.	.	.
16GG\LL	8dd\L	.	.	.	.
16D\	.	.	.	.	.
16B-\	8dd\	.	.	.	.
16D\	.	.	.	.	.
16B-\	8gg\J	.	.	.	.
16D\JJ	.	.	.	.	.
16AA\LL	4ffn\	.	.	.	.
16F\	.	.	.	.	.
16c\	.	.	.	.	.
16F\	.	.	.	.	.
16c\	8cc\	.	.	.	.
16F\JJ	.	.	.	.	.
=69	=69	=69	=69	=69	=69
16BB-\LL	[4.dd\	.	1.r	.	.
16F\	.	.	.	.	.
16B-\	.	.	.	.	.
16F\	.	.	.	.	.
16BB-\	.	.	.	.	.
16F\JJ	.	.	.	.	.
16D\LL	8dd\L]	.	.	.	.
16F#X\	.	.	.	.	.
16A\	8a\	.	.	.	.
16F#\	.	.	.	.	.
16A\	8cc\J	.	.	.	.
16F#\JJ	.	.	.	.	.
16GG\LL	8b-/L	.	.	.	.
16D\	.	.	.	.	.
16B-\	(16b-/L	.	.	.	.
16D\	16a/J)	.	.	.	.
16B-\	[8g/J	.	.	.	.
16D\JJ	.	.	.	.	.
16GG\LL	8g/L]	.	.	.	.
16D\	.	.	.	.	.
16B-\	(8g/	.	.	.	.
16D\	.	.	.	.	.
16B-\	8d/J)	.	.	.	.
16D\JJ	.	.	.	.	.
=70	=70	=70	=70	=70	=70
16GG\LL	8g/L	<	1.r	.	.
16D\	.	.	.	.	.
16B-\	8g/	.	.	.	.
16D\	.	.	.	.	.
16B-\	8a/J	.	.	.	.
16D\JJ	.	.	.	.	.
16GG\LL	8b-/L	.	.	.	.
16D\	.	.	.	.	.
16B-\	8b-/	.	.	.	.
16D\	.	.	.	.	.
16B-\	8cc/J	[	.	.	.
16D\JJ	.	.	.	.	.
16GG\LL	8.dd\L	.	.	.	.
16D\	.	.	.	.	.
16B-\	.	.	.	.	.
16D\	16bb-\L	.	.	.	.
16B-\	16aa\	.	.	.	.
16D\JJ	16gg\JJ	.	.	.	.
16AA\LL	4ff#X\	.	.	.	.
16D\	.	.	.	.	.
16A\	.	.	.	.	.
16D\	.	.	.	.	.
16BB-\	8gg\	.	.	.	.
16D\JJ	.	.	.	.	.
*	*	*	*clefG2	*	*
=71	=71	=71	=71	=71	=71
16BB-\LL	8gg^\L	.	1.r	.	.
16G\	.	.	.	.	.
16B-X\	(16ff\L	.	.	.	.
16G\	16ee-\J)	.	.	.	.
16B-\	8dd\J	.	.	.	.
16G\JJ	.	.	.	.	.
16C\LL	8ff^\L	.	.	.	.
16G\	.	.	.	.	.
16c\	(16ee-\L	.	.	.	.
16G\	16dd\J)	.	.	.	.
16c\	8cc\J	.	.	.	.
16G\JJ	.	.	.	.	.
16D\LL	8dd\L	.	.	.	.
16F#X\	.	.	.	.	.
16A\	8a\	.	.	.	.
16F#\	.	.	.	.	.
16A\	[8cc\J	.	.	.	.
16F#\JJ	.	.	.	.	.
16GG\LL	8cc^\L]	.	.	.	.
16D\	.	.	.	.	.
16G\	16b-\L	.	.	.	.
16D\	16a\J	.	.	.	.
16G\	[8g\J	.	.	.	.
16D\JJ	.	.	.	.	.
=72	=72	=72	=72	=72	=72
!	!	!	!LO:TX:a:t=AZAEL.	!	!
16GG\LL	8g/L]	.	1.r	.	.
16D\	.	.	.	.	.
16G\	(8g/	p	.	.	.
16D\	.	.	.	.	.
16G\	8a/J	.	.	.	.
16D\JJ	.	.	.	.	.
16GG\LL	8f#X/L)	.	.	.	.
16D\	.	.	.	.	.
16A\	(8f#/	.	.	.	.
16D\	.	.	.	.	.
16A\	8g/J	.	.	.	.
16D\JJ	.	.	.	.	.
16GG\LL	8a/L	.	.	.	.
16D\	.	.	.	.	.
16F#X\	8dd/	.	.	.	.
16D\	.	.	.	.	.
16F#\	8a/J)	.	.	.	.
16D\JJ	.	.	.	.	.
16GG\LL	8cc^/L	.	.	.	.
16D\	.	.	.	.	.
16G\	16b-/L	.	.	.	.
16D\	16a/J	.	.	.	.
16G\	8g^/J	.	.	.	.
16D\JJ	.	.	.	.	.
=73	=73	=73	=73	=73	=73
16GG\LL	8g/L	.	4r	.	.
16D\	.	.	.	.	.
16G\	8g/	.	.	.	.
16D\	.	.	.	.	.
16G\	8a/J	.	8dd\	Nad	.
16D\JJ	.	.	.	.	.
16GG\LL	8f#X/L	.	2.f#X/	brze-	.
16D\	.	.	.	.	.
16A\	8f#/	.	.	.	.
16D\	.	.	.	.	.
16A\	8g/J	.	.	.	.
16D\JJ	.	.	.	.	.
16GG\LL	8a/L	.	.	.	.
16D\	.	.	.	.	.
16F#X\	8dd/	.	.	.	.
16D\	.	.	.	.	.
16F#\	8a/J	.	.	.	.
16D\JJ	.	.	.	.	.
16GG\LL	8cc^/L	.	4g/	-giem	.
16BB-\	.	.	.	.	.
16D\	16b-/L	.	.	.	.
16G\	16a/J	.	.	.	.
16B-\	[8g^/J	.	8r	.	.
16d\JJ	.	.	.	.	.
=74	=74	=74	=74	=74	=74
*^	*	*	*	*	*
16G/LL	2.ryy	8g/L]	.	(4g/	Wis-	.
16B-/	.	.	.	.	.	.
16d/	.	8g/	.	.	.	.
16B-/	.	.	.	.	.	.
16d/	.	8a/J	.	8a/)	.	.
16B-/JJ	.	.	.	.	.	.
16D/LL	.	8f#X/L	<	4f#X/	-ły	.
16A/	.	.	.	.	.	.
16c/	.	8f#/	.	.	.	.
16A/	.	.	.	.	.	.
16c/	.	8g/J	.	8r	.	.
16A/JJ	.	.	.	.	.	.
16C/LL	4ryy	8a\L	.	(8a\L	za	.
16F#X/	.	.	.	.	.	.
16A/	.	8b-\	.	8b-\J)	.	.
16F#/	.	.	.	.	.	.
16C/	8C\	8cc\J	[	8cc\	Woj-	.
16F#/JJ	.	.	.	.	.	.
16BB-/LL	4ryy	[4dd\	.	4dd\	-cie-	.
16D/	.	.	.	.	.	.
16G/	.	.	.	.	.	.
16D/	.	.	.	.	.	.
16BB-/	8BB-\	8dd] 8g\	.	8dd\	-cha	.
16D/JJ	.	.	.	.	.	.
=75	=75	=75	=75	=75	=75	=75
16C/LL	4C\	4.ee- 4.f#X\	<	4.ee-^\	śla-	.
16F#X/	.	.	.	.	.	.
16A/	.	.	.	.	.	.
16F#/	.	.	.	.	.	.
16C/	8C\	.	.	.	.	.
16F#/JJ	.	.	.	.	.	.
16BB-/LL	4BB-\	4dd 4g\	[	4.dd\	-dem	.
16D/	.	.	.	.	.	.
16G/	.	.	.	.	.	.
16D/	.	.	.	.	.	.
16BB-/	8BB-\	8dd 8g\	.	.	.	.
16D/JJ	.	.	.	.	.	.
16C/LL	4C\	4.ee- 4.f#\	<	4r	.	.
16F#/	.	.	.	.	.	.
16A/	.	.	.	.	.	.
16F#/	.	.	.	.	.	.
16C/	8C\	.	.	8r	.	.
16F#/JJ	.	.	.	.	.	.
16C/LL	4C\	4ee- 4f#\	[	4a\	już	.
16F#X/	.	.	.	.	.	.
16A/	.	.	.	.	.	.
16F#/	.	.	.	.	.	.
16C/	8C\	8ee- 8f#\	.	8cc\	się	.
16F#/JJ	.	.	.	.	.	.
=76	=76	=76	=76	=76	=76	=76
16BB-/LL	4BB-\	4.ee- 4.g\	.	4.ee-\	sze-	.
16G/	.	.	.	.	.	.
16B-/	.	.	.	.	.	.
16G/	.	.	.	.	.	.
16BB-/	8BB-\	.	.	.	.	.
16G/JJ	.	.	.	.	.	.
16BB-/LL	4BB-\	4.dd 4.fn/	.	4.dd\	-rzy	.
16D/	.	.	.	.	.	.
16B-/	.	.	.	.	.	.
16F/	.	.	.	.	.	.
16BB-/	8BB-\	.	.	.	.	.
16F/JJ	.	.	.	.	.	.
16BB-/LL	4BB-\	4.dd 4.g#X 4.f^\	.	4r	.	.
16F/	.	.	.	.	.	.
16B-/	.	.	.	.	.	.
16F/	.	.	.	.	.	.
16BB-/	8BB-\	.	.	8r	.	.
16F/JJ	.	.	.	.	.	.
16AA/LL	4AA\	4dd 4a 4f#X/	.	4dd\	już	.
16F#X/	.	.	.	.	.	.
16A/	.	.	.	.	.	.
16F#/	.	.	.	.	.	.
16AA/	8AA\	8dd 8a 8f#/	.	8dd\	się	.
16F#/JJ	.	.	.	.	.	.
=77	=77	=77	=77	=77	=77	=77
16AA/LL	4AA\	(4.dd 4.g [4.en/	.	4.dd^\	sze-	.
16En/	.	.	.	.	.	.
16A/	.	.	.	.	.	.
16E/	.	.	.	.	.	.
16AA/	8AA\	.	.	.	.	.
16E/JJ	.	.	.	.	.	.
16AA/LL	4AA\	4.cc#X 4.g 4.e/])	.	4.cc#X\	-rzy	.
16E/	.	.	.	.	.	.
16A/	.	.	.	.	.	.
16E/	.	.	.	.	.	.
16AA/	8AA\	.	.	.	.	.
16E/JJ	.	.	.	.	.	.
16AA/LL	4AA\	4.cc# 4.g 4.e/	.	4cc#\	wieść	.
16En/	.	.	.	.	.	.
16A/	.	.	.	.	.	.
16E/	.	.	.	.	.	.
16AA/	8AA\	.	.	8cc#\	że	.
16E/JJ	.	.	.	.	.	.
4ryy	16AA\LL	4cc# 4f#X 4d#X^/	.	4cc#\	lud	.
.	16D#X\	.	.	.	.	.
.	16A\	.	.	.	.	.
.	16D#\	.	.	.	.	.
8ryy	16A\	8cc# 8f# 8d#/	.	8cc#\	przyj-	.
.	16D#\JJ	.	.	.	.	.
*v	*v	*	*	*	*	*
=78	=78	=78	=78	=78	=78
16AA-X\LL	(4.cc#X 4.f 4.d#X/	.	4cc#X\	-mu-	.
16E-X\	.	.	.	.	.
16A-X\	.	.	.	.	.
16E-\	.	.	.	.	.
16AA-\	.	.	8cc#\	-je	.
16E-\JJ	.	.	.	.	.
16AA-X\LL	4.ccn 4.f 4.d#^/)	.	4ccn\	z je-	.
16E-X\	.	.	.	.	.
16A-X\	.	.	.	.	.
16E-\	.	.	.	.	.
16AA-\	.	.	8cc\	-go	.
16E-\JJ	.	.	.	.	.
16GG\LL	4.b- 4.g/	.	4b-^\	cnót	.
16D\	.	.	.	.	.
16B-\	.	.	.	.	.
16D\	.	.	.	.	.
16GG\	.	.	8b-\	przy-	.
16D\JJ	.	.	.	.	.
16EE-/LL	8b-L 8g 8c#X/	.	8b-/L	-kła-	.
16BB-/	.	.	.	.	.
16E-/	8a/	.	8a/	.	.
16BB-/	.	.	.	.	.
16EE-/	8g/J	.	8g/J	.	.
16BB-/JJ	.	.	.	.	.
=79	=79	=79	=79	=79	=79
4.D 4.DD/	4.a 4.f#X 4.d/	.	4.a/	-dem	.
4r	4r	.	4r	.	.
8r	8r	.	8r	.	.
4r	4r	.	4r	.	.
8r	8r	.	8a/	Chry-	.
4r	4r	.	8a/	-stu-	.
.	.	.	8a/	-so-	.
8r	8r	.	8a/	-wą	.
=80	=80	=80	=80	=80	=80
2.c: 2.F:\	2.a: 2.fn: 2.e-:/	.	[4.a\	cześć!	.
.	.	.	4a\]	.	.
.	.	.	8b-\	I z	.
4r	4r	.	[4.cc\	Prus	.
8r	8r	.	.	.	.
4r	4r	.	4cc\]	.	.
8r	8r	.	8dd\	za-	.
=81	=81	=81	=81	=81	=81
2.c: 2.F:\	2.a: 2.f: 2.e-:/	.	4.ee-\	-ch-	.
.	.	.	4.cc\	-dnich	.
4r	4r	.	4r	.	.
8r	8r	.	8r	.	.
4r	4r	.	4cc\	aż	.
8r	8r	.	8cc\	po	.
=82	=82	=82	=82	=82	=82
!	!	!	!	!	!LO:DY:a
2.c: 2.F:\	2.a: 2.f: 2.e-:/	.	(2.gg\	brat-	f
4r	4r	.	4.ee-\)	.	.
8r	8r	.	.	.	.
4r	4r	.	(4cc\	-nią	.
8r	8r	.	8b-/)	.	.
=83	=83	=83	=83	=83	=83
2.c: 2.F:\	2.a: 2.f: 2.e-:/	.	4.a/	Li-	.
.	.	.	4.f/	-twę,	.
4r	4r	.	4r	.	.
8r	8r	.	8r	.	.
4r	4r	.	8f/	dzicz	.
.	.	.	8f/	za	.
8r	8r	.	8f/	ka-	.
=84	=84	=84	=84	=84	=84
4.D 4.DD/	4.f 4.B-/	.	(8f/L	-pła-	.
.	.	.	8b-/J)	.	.
!	!	!	!LO:TX:a:t=piu lento.	!	!
.	.	.	8a/	-nem	.
!	!LO:TX:b:t=piu lento.	!	!	!	!
4E- 4EE-/	4g 4B-/	.	8g/	ta-	.
.	.	.	8dd\	-ką	.
8En 8EEn/	8g 8c 8B-/	.	8cc\	szle	.
4.F 4.FF/	4.f 4.d 4.B-/	.	(8b-\	mo-	.
.	.	.	8qcc/	.	.
.	.	.	16b-/LL	.	.
.	.	.	16a/JJ)	.	.
.	.	.	(16b-/LL	-dli-	.
.	.	.	16cc/JJ	.	.
[4.F [4.FF/	[4.f [4.e-X [4.c [4.A/	.	4.a/)	.	.
=85	=85	=85	=85	=85	=85
4.F] 4.FF;/]	4.f] 4.e-X] 4.c] 4.A;/]	.	4.f;/	-twę:	.
4r	4r	.	4r	.	.
8r	8r	.	8r	.	.
4r	4r	.	4r	.	.
8r	8r	.	8r	.	.
4r	4r	.	4r	.	.
8r	8r	.	8r	.	.
==	==	==	==	==	==
*-	*-	*-	*-	*-	*-
!!title: @{OTL};
!!!RDF**kern: > = above
!!!RDF**kern: < = below
!!!RDF**dynam: > = "dim", fontstyle= "bold-italic"
!!!RDF**dynam: < = "cres", fontstyle= "bold-italic"
!!!RDF**kern: | = vertical stroke
!!!RDF**kern: N = linked
!!!RDF**kern: i = editorial accidental
!!!RDF**kern: l = terminal long
!!!AIN: 2 empty
!!!ENC: Andrzej Gręziak
!!!END: 2022-02-24
!!!EED: Wojciech Jakubiak-Danek
!!!EST: 2022-02-28
!!!URL-scan: https://polona.pl/item/swiety-wojciech-meczennik-oratorjo-w-trzech-czesciach-dzielo-66-spiew-z-fortepianem,MTkzODI1Mzc/242/#item
!!!ONB-nifc: UWAGA: oratorium zawiera w źródle 28 numerów podzielonych na 30 plików (rozdzielenie w No. 6 - osobno Recitativo oraz Aria matki i No. 10 - osobno Recitativo, arja i chór oraz Sen). Polecam widok miniatur na Polonie. Uwaga co do obsady: prosimy umieszczać tylko partie występujące w danym numerze (nie całą obsadę oratorium)
